svgs/sharp-thin/hard-drive.svg

<svg xmlns="http://www.w3.org/2000/svg" viewBox="0 0 512 512"><!--! Font Awesome Pro 6.6.0 by @fontawesome - https://fontawesome.com License - https://fontawesome.com/license (Commercial License) Copyright 2024 Fonticons, Inc. --><path d="M16 48l0 240 480 0 0-240L16 48zm0 256l0 160 480 0 0-160L16 304zM0 288L0 48 0 32l16 0 480 0 16 0 0 16 0 240 0 16 0 160 0 16-16 0L16 480 0 480l0-16L0 304l0-16zm320 80a16 16 0 1 0 0 32 16 16 0 1 0 0-32zm32 16a32 32 0 1 1 -64 0 32 32 0 1 1 64 0zm48 0a16 16 0 1 0 32 0 16 16 0 1 0 -32 0zm16 32a32 32 0 1 1 0-64 32 32 0 1 1 0 64z"/></svg>

<svg xmlns="http://www.w3.org/2000/svg" viewBox="0 0 512 512"><!--! Font Awesome Pro 6.5.2 by @fontawesome - https://fontawesome.com License - https://fontawesome.com/license (Commercial License) Copyright 2024 Fonticons, Inc. --><path d="M16 48V288H496V48H16zm0 256V464H496V304H16zM0 288V48 32H16 496h16V48 288v16V464v16H496 16 0V464 304 288zm320 80a16 16 0 1 0 0 32 16 16 0 1 0 0-32zm32 16a32 32 0 1 1 -64 0 32 32 0 1 1 64 0zm48 0a16 16 0 1 0 32 0 16 16 0 1 0 -32 0zm16 32a32 32 0 1 1 0-64 32 32 0 1 1 0 64z"/></svg>
